2 Export/Icons/Rounded/Download, Get.svg

<svg xmlns="http://www.w3.org/2000/svg" xmlns:xlink="http://www.w3.org/1999/xlink" width="24" height="24" viewBox="0 0 24 24">
  <defs>
    <path id="download,-get-a" d="M16.59 9H15V4c0-.55-.45-1-1-1h-4c-.55 0-1 .45-1 1v5H7.41c-.89 0-1.34 1.08-.71 1.71l4.59 4.59c.39.39 1.02.39 1.41 0l4.59-4.59c.63-.63.19-1.71-.7-1.71zM5 19c0 .55.45 1 1 1h12c.55 0 1-.45 1-1s-.45-1-1-1H6c-.55 0-1 .45-1 1z"/>
  </defs>
  <g fill="none" fill-rule="evenodd">
    <polygon points="0 0 24 0 24 24 0 24"/>
    <mask id="download,-get-b" fill="#fff">
      <use xlink:href="#download,-get-a"/>
    </mask>
    <use fill="#000" xlink:href="#download,-get-a"/>
    <g fill="#000" mask="url(#download,-get-b)">
      <rect width="24" height="24"/>
    </g>
  </g>
</svg>

<svg xmlns="http://www.w3.org/2000/svg" xmlns:xlink="http://www.w3.org/1999/xlink" width="24" height="24" viewBox="0 0 24 24">
  <defs>
    <path id="download,-get-a" d="M16.59,9 L15,9 L15,4 C15,3.45 14.55,3 14,3 L10,3 C9.45,3 9,3.45 9,4 L9,9 L7.41,9 C6.52,9 6.07,10.08 6.7,10.71 L11.29,15.3 C11.68,15.69 12.31,15.69 12.7,15.3 L17.29,10.71 C17.92,10.08 17.48,9 16.59,9 Z M5,19 C5,19.55 5.45,20 6,20 L18,20 C18.55,20 19,19.55 19,19 C19,18.45 18.55,18 18,18 L6,18 C5.45,18 5,18.45 5,19 Z"/>
  </defs>
  <g fill="none" fill-rule="evenodd">
    <polygon points="0 0 24 0 24 24 0 24"/>
    <mask id="download,-get-b" fill="#fff">
      <use xlink:href="#download,-get-a"/>
    </mask>
    <use fill="#000" xlink:href="#download,-get-a"/>
    <g fill="#000" mask="url(#download,-get-b)">
      <rect width="24" height="24"/>
    </g>
  </g>
</svg>
